src/assets/duotone/Mask.svg

<svg width="24" height="24" viewBox="0 0 24 24"  xmlns="http://www.w3.org/2000/svg">
<path opacity="0.4" d="M22 12C22 17.04 18.26 21.21 13.41 21.9C12.95 21.97 12.48 22 12 22C9.24 22 6.73999 20.88 4.92999 19.07C3.11999 17.26 2 14.76 2 12C2 6.48 6.48 2 12 2C14.76 2 17.26 3.12 19.07 4.93C20.88 6.74 22 9.24 22 12Z" />
<path d="M14.83 10.2299L12.3499 12.7099L18.8799 19.2399C18.5199 19.5899 18.1299 19.9099 17.7199 20.1999L11.2899 13.7699L8.81995 16.2399L13.9399 21.3699C14.0499 21.4799 14.12 21.6199 14.15 21.7599C14.15 21.7599 14.15 21.7599 14.15 21.7699C13.91 21.8199 13.6599 21.8699 13.4099 21.8999C13.0899 21.9499 12.7699 21.9799 12.4399 21.9899L7.75995 17.2999L5.47992 19.5799C5.28992 19.4199 5.10993 19.2499 4.92993 19.0699C4.74993 18.8899 4.57992 18.7099 4.41992 18.5199L18.52 4.41992C18.71 4.57992 18.8899 4.74992 19.0699 4.92992C19.2499 5.10992 19.42 5.28992 19.58 5.47992L15.89 9.16992L21.58 14.8599C21.42 15.3899 21.2199 15.8899 20.9799 16.3799L14.83 10.2299Z" />
</svg>

<?xml version="1.0" encoding="UTF-8"?>
<svg width="24" height="24" viewBox="0 0 24 24" xmlns="http://www.w3.org/2000/svg">
 <path d="m22 12c0 5.04-3.74 9.21-8.59 9.9-0.46 0.07-0.93 0.1-1.41 0.1-2.76 0-5.26-1.12-7.07-2.93s-2.93-4.31-2.93-7.07c0-5.52 4.48-10 10-10 2.76 0 5.26 1.12 7.07 2.93s2.93 4.31 2.93 7.07z" opacity=".4"/>
 <path d="m14.83 10.23-2.4801 2.48 6.53 6.53c-0.36 0.35-0.75 0.67-1.16 0.96l-6.43-6.43-2.47 2.47 5.12 5.13c0.11 0.11 0.1801 0.25 0.2101 0.39v0.01c-0.24 0.05-0.4901 0.1-0.7401 0.13-0.32 0.05-0.64 0.08-0.97 0.09l-4.68-4.69-2.28 2.28c-0.19-0.16-0.36999-0.33-0.54999-0.51s-0.35001-0.36-0.51001-0.55l14.1-14.1c0.19 0.16 0.3699 0.33 0.5499 0.51s0.3501 0.36 0.5101 0.55l-3.69 3.69 5.69 5.69c-0.16 0.53-0.3601 1.03-0.6001 1.52l-6.1499-6.15z"/>
</svg>
